X:1
T:Fado Visconti.
T:Fado Visconti.
T:in "Cantos Populares - 12 Fados para Piano"
T:Editor: Eduardo da Fonseca - Porto [ca. 1900]
%%score { 1 | 2 }
L:1/8
Q:1/4=50
M:2/4
K:G
V:1 treble nm="Piano" snm="Pno."
V:2 bass 
V:1
"^Andante" dd/ | dB- B/AG/ | cF- F/cc/ | cF- F/BA/ | AG- G/dd/ | dB- B/AG/ | cF- F/cc/ | %7
 cF- F/BA/ | AG- G/AA/ | AA- A/BF/ | A^C- C/AB/ | ^cB- B/dc/ | BA- A/AA/ | AA- A/BF/ | A^C- C/AA/ | %15
 AF- F/G^C/ | D2- D/!D.C.! |] %17
V:2
 z z/ | G,/D/B,/D/ G,/D/B,/D/ | A,/D/C/D/ A,/D/C/D/ | D,/D/C/D/ D,/D/C/D/ | G,/D/B,/D/ G,/D/B,/D/ | %5
 G,/D/B,/D/ G,/D/B,/D/ | A,/D/C/D/ A,/D/C/D/ | D,/D/C/D/ D,/D/F,/D/ | G,/D/B,/D/ G, z | %9
 D,/A,/F,/A,/ ^D,/A,/F,/A,/ | E,/A,/G,/A,/ A,,/A,/G,/A,/ | E,/A,/G,/A,/ A,,/A,/E,/A,/ | %12
 D,/A,/F,/A,/ D,/A,/F,/A,/ | D,/A,/F,/A,/ D,/A,/^D,/A,/ | E,/A,/G,/A,/ A,,/A,/E,/A,/ | %15
 ^C,/A,/G,/A,/ A,,/A,/E,/A,/ | F,/A,/F,/A,/ D,/ |] %17

